X:1
T:Blood on the Saddle
M:3/4
L:1/2
K:C
 C/4E/4| G3/2| A G/2|E/4-D/4 C-| C G/4A/4| c3/2| A c/2| G3/2-| G/2 E/2 D/2|\
 C3/2| C3/2| C/2 C-| C C/2| D3/2| E D/2| C3/2-| C||
